X:10
T:Sergeant Early's Dream                                                                            
M:C|                                                                                                
L:1/8                                                                                               
R:reel                                                                                              
K:EDor                                                                                              
dc|BEEF GBdB|AFDE ~F3G|E[BB,]EF GFGA|Beef gfed|                                                     
BEEF GBdB|AFDE ~F3G|E[BB,]EF GBdB|AGFG E2 :|                                                        
|:ed|Beed ~e3f|g2fe dBAG|FDFA ~d3e|fded BdAd|                                                       
Beed ~e3f|g2fe dBAd|BF~F2 dF~F2|DEFD E2 :|
